X: 1
T: the Land o' the Leal
C:
R: air
Z: 2014 John Chambers <jc:trillian.mit.edu>
M: C
L: 1/8
K: A
E2 |\
"A"E4 E3C | E4 A2G2 | "D"F4 "/c#"F3E | "Bm"F2G2 A2B2 |\
"A"c4 "C#7"B3A | "D"A3B c2B2 | "D"A4 "E7"F3E | "A"E6 |]
c2 |\
"A"c4 c3B | c4 e2c2 | "E"B4 B3A | B2c2 "D"d2f2 |\
"A"ec3 "C#7"c3B | "D"A2B2 c2B2 | "D"AF3 "E7"F3E | "A"E6 |]
